images/5384438.svg

<?xml version="1.0" encoding="UTF-8"?>
<svg xmlns="http://www.w3.org/2000/svg" xmlns:xlink="http://www.w3.org/1999/xlink" width="300pt" height="300pt" viewBox="0 0 300 300" version="1.1">
<defs>
<g>
<symbol overflow="visible" id="glyph0-0">
<path style="stroke:none;" d="M 0.453125 1.59375 L 0.453125 -6.34375 L 4.953125 -6.34375 L 4.953125 1.59375 Z M 0.953125 1.09375 L 4.453125 1.09375 L 4.453125 -5.84375 L 0.953125 -5.84375 Z M 0.953125 1.09375 "/>
</symbol>
<symbol overflow="visible" id="glyph0-1">
<path style="stroke:none;" d="M 0.890625 -6.5625 L 2.078125 -6.5625 L 4.984375 -1.078125 L 4.984375 -6.5625 L 5.84375 -6.5625 L 5.84375 0 L 4.65625 0 L 1.75 -5.484375 L 1.75 0 L 0.890625 0 Z M 0.890625 -6.5625 "/>
</symbol>
<symbol overflow="visible" id="glyph0-2">
<path style="stroke:none;" d="M 0.890625 -6.5625 L 1.765625 -6.5625 L 1.765625 -3.875 L 5 -3.875 L 5 -6.5625 L 5.890625 -6.5625 L 5.890625 0 L 5 0 L 5 -3.125 L 1.765625 -3.125 L 1.765625 0 L 0.890625 0 Z M 0.890625 -6.5625 "/>
</symbol>
</g>
</defs>
<g id="surface39577">
<rect x="0" y="0" width="300" height="300" style="fill:rgb(100%,100%,100%);fill-opacity:1;stroke:none;"/>
<path style="fill:none;stroke-width:1.2;stroke-linecap:butt;stroke-linejoin:miter;stroke:rgb(0%,0%,0%);stroke-opacity:1;stroke-miterlimit:10;" d="M 264.75 141.367188 L 242.535156 137.125 "/>
<path style="fill:none;stroke-width:1.2;stroke-linecap:butt;stroke-linejoin:miter;stroke:rgb(0%,0%,0%);stroke-opacity:1;stroke-miterlimit:10;" d="M 242.535156 137.125 L 227.753906 154.242188 "/>
<path style="fill:none;stroke-width:1.2;stroke-linecap:butt;stroke-linejoin:miter;stroke:rgb(0%,0%,0%);stroke-opacity:1;stroke-miterlimit:10;" d="M 237.027344 135.359375 L 225.203125 149.054688 "/>
<path style="fill:none;stroke-width:1.2;stroke-linecap:butt;stroke-linejoin:miter;stroke:rgb(0%,0%,0%);stroke-opacity:1;stroke-miterlimit:10;" d="M 235.101562 115.765625 L 242.535156 137.125 "/>
<path style="fill:none;stroke-width:1.2;stroke-linecap:butt;stroke-linejoin:miter;stroke:rgb(0%,0%,0%);stroke-opacity:1;stroke-miterlimit:10;" d="M 227.753906 154.242188 L 205.539062 150 "/>
<path style="fill:none;stroke-width:1.2;stroke-linecap:butt;stroke-linejoin:miter;stroke:rgb(0%,0%,0%);stroke-opacity:1;stroke-miterlimit:10;" d="M 205.539062 150 L 198.105469 128.640625 "/>
<path style="fill:none;stroke-width:1.2;stroke-linecap:butt;stroke-linejoin:miter;stroke:rgb(0%,0%,0%);stroke-opacity:1;stroke-miterlimit:10;" d="M 199.769531 149.613281 L 193.820312 132.523438 "/>
<path style="fill:none;stroke-width:1.2;stroke-linecap:butt;stroke-linejoin:miter;stroke:rgb(0%,0%,0%);stroke-opacity:1;stroke-miterlimit:10;" d="M 190.753906 167.117188 L 205.539062 150 "/>
<path style="fill:none;stroke-width:1.2;stroke-linecap:butt;stroke-linejoin:miter;stroke:rgb(0%,0%,0%);stroke-opacity:1;stroke-miterlimit:10;" d="M 198.105469 128.640625 L 212.886719 111.523438 "/>
<path style="fill:none;stroke-width:1.2;stroke-linecap:butt;stroke-linejoin:miter;stroke:rgb(0%,0%,0%);stroke-opacity:1;stroke-miterlimit:10;" d="M 198.105469 128.640625 L 186.996094 126.519531 "/>
<path style="fill:none;stroke-width:1.2;stroke-linecap:butt;stroke-linejoin:miter;stroke:rgb(0%,0%,100%);stroke-opacity:1;stroke-miterlimit:10;" d="M 186.996094 126.519531 L 175.890625 124.398438 "/>
<path style="fill:none;stroke-width:1.2;stroke-linecap:butt;stroke-linejoin:miter;stroke:rgb(0%,0%,0%);stroke-opacity:1;stroke-miterlimit:10;" d="M 212.886719 111.523438 L 235.101562 115.765625 "/>
<path style="fill:none;stroke-width:1.2;stroke-linecap:butt;stroke-linejoin:miter;stroke:rgb(0%,0%,0%);stroke-opacity:1;stroke-miterlimit:10;" d="M 214.109375 117.171875 L 231.882812 120.566406 "/>
<path style="fill:none;stroke-width:1.2;stroke-linecap:butt;stroke-linejoin:miter;stroke:rgb(0%,0%,100%);stroke-opacity:1;stroke-miterlimit:10;" d="M 175.890625 124.398438 L 168.5 132.957031 "/>
<path style="fill:none;stroke-width:1.2;stroke-linecap:butt;stroke-linejoin:miter;stroke:rgb(0%,0%,0%);stroke-opacity:1;stroke-miterlimit:10;" d="M 168.5 132.957031 L 161.109375 141.515625 "/>
<path style="fill:none;stroke-width:1.2;stroke-linecap:butt;stroke-linejoin:miter;stroke:rgb(0%,0%,100%);stroke-opacity:1;stroke-miterlimit:10;" d="M 178.4375 129.585938 L 172.527344 136.433594 "/>
<path style="fill:none;stroke-width:1.2;stroke-linecap:butt;stroke-linejoin:miter;stroke:rgb(0%,0%,0%);stroke-opacity:1;stroke-miterlimit:10;" d="M 172.527344 136.433594 L 166.613281 143.28125 "/>
<path style=" stroke:none;fill-rule:nonzero;fill:rgb(100%,100%,100%);fill-opacity:1;" d="M 172.890625 118.898438 L 179.890625 118.898438 L 179.890625 129.898438 L 172.890625 129.898438 Z M 172.890625 118.898438 "/>
<g style="fill:rgb(0%,0%,100%);fill-opacity:1;">
  <use xlink:href="#glyph0-1" x="172.890625" y="127.561523"/>
</g>
<path style="fill:none;stroke-width:1.2;stroke-linecap:butt;stroke-linejoin:miter;stroke:rgb(0%,0%,0%);stroke-opacity:1;stroke-miterlimit:10;" d="M 161.109375 141.515625 L 168.539062 162.875 "/>
<path style="fill:none;stroke-width:1.2;stroke-linecap:butt;stroke-linejoin:miter;stroke:rgb(0%,0%,0%);stroke-opacity:1;stroke-miterlimit:10;" d="M 161.109375 141.515625 L 150 139.394531 "/>
<path style="fill:none;stroke-width:1.2;stroke-linecap:butt;stroke-linejoin:miter;stroke:rgb(0%,0%,100%);stroke-opacity:1;stroke-miterlimit:10;" d="M 150 139.394531 L 138.890625 137.269531 "/>
<path style="fill:none;stroke-width:1.2;stroke-linecap:butt;stroke-linejoin:miter;stroke:rgb(0%,0%,0%);stroke-opacity:1;stroke-miterlimit:10;" d="M 168.539062 162.875 L 190.753906 167.117188 "/>
<path style="fill:none;stroke-width:1.2;stroke-linecap:butt;stroke-linejoin:miter;stroke:rgb(0%,0%,0%);stroke-opacity:1;stroke-miterlimit:10;" d="M 171.761719 158.070312 L 189.53125 161.464844 "/>
<path style="fill:none;stroke-width:1.2;stroke-linecap:butt;stroke-linejoin:miter;stroke:rgb(0%,0%,0%);stroke-opacity:1;stroke-miterlimit:10;" d="M 190.753906 167.117188 L 198.1875 188.476562 "/>
<path style="fill:none;stroke-width:1.2;stroke-linecap:butt;stroke-linejoin:miter;stroke:rgb(0%,0%,100%);stroke-opacity:1;stroke-miterlimit:10;" d="M 138.890625 137.269531 L 131.460938 115.910156 "/>
<path style=" stroke:none;fill-rule:nonzero;fill:rgb(100%,100%,100%);fill-opacity:1;" d="M 131.890625 131.769531 L 145.890625 131.769531 L 145.890625 142.769531 L 131.890625 142.769531 Z M 131.890625 131.769531 "/>
<g style="fill:rgb(0%,0%,100%);fill-opacity:1;">
  <use xlink:href="#glyph0-1" x="131.890625" y="140.432617"/>
  <use xlink:href="#glyph0-2" x="138.868164" y="140.432617"/>
</g>
<path style="fill:none;stroke-width:1.2;stroke-linecap:butt;stroke-linejoin:miter;stroke:rgb(0%,0%,100%);stroke-opacity:1;stroke-miterlimit:10;" d="M 131.460938 115.910156 L 120.351562 113.789062 "/>
<path style="fill:none;stroke-width:1.2;stroke-linecap:butt;stroke-linejoin:miter;stroke:rgb(0%,0%,0%);stroke-opacity:1;stroke-miterlimit:10;" d="M 120.351562 113.789062 L 109.246094 111.667969 "/>
<path style="fill:none;stroke-width:1.2;stroke-linecap:butt;stroke-linejoin:miter;stroke:rgb(0%,0%,100%);stroke-opacity:1;stroke-miterlimit:10;" d="M 130.234375 110.257812 L 121.351562 108.5625 "/>
<path style="fill:none;stroke-width:1.2;stroke-linecap:butt;stroke-linejoin:miter;stroke:rgb(0%,0%,0%);stroke-opacity:1;stroke-miterlimit:10;" d="M 121.351562 108.5625 L 112.464844 106.867188 "/>
<path style=" stroke:none;fill-rule:nonzero;fill:rgb(100%,100%,100%);fill-opacity:1;" d="M 128.460938 110.410156 L 135.460938 110.410156 L 135.460938 121.410156 L 128.460938 121.410156 Z M 128.460938 110.410156 "/>
<g style="fill:rgb(0%,0%,100%);fill-opacity:1;">
  <use xlink:href="#glyph0-1" x="128.460938" y="119.073242"/>
</g>
<path style="fill:none;stroke-width:1.2;stroke-linecap:butt;stroke-linejoin:miter;stroke:rgb(0%,0%,0%);stroke-opacity:1;stroke-miterlimit:10;" d="M 109.246094 111.667969 L 94.460938 128.785156 "/>
<path style="fill:none;stroke-width:1.2;stroke-linecap:butt;stroke-linejoin:miter;stroke:rgb(0%,0%,0%);stroke-opacity:1;stroke-miterlimit:10;" d="M 94.460938 128.785156 L 83.355469 126.664062 "/>
<path style="fill:none;stroke-width:1.2;stroke-linecap:butt;stroke-linejoin:miter;stroke:rgb(0%,0%,100%);stroke-opacity:1;stroke-miterlimit:10;" d="M 83.355469 126.664062 L 72.246094 124.542969 "/>
<path style="fill:none;stroke-width:1.2;stroke-linecap:butt;stroke-linejoin:miter;stroke:rgb(0%,0%,0%);stroke-opacity:1;stroke-miterlimit:10;" d="M 91.242188 133.589844 L 82.355469 131.890625 "/>
<path style="fill:none;stroke-width:1.2;stroke-linecap:butt;stroke-linejoin:miter;stroke:rgb(0%,0%,100%);stroke-opacity:1;stroke-miterlimit:10;" d="M 82.355469 131.890625 L 73.46875 130.195312 "/>
<path style="fill:none;stroke-width:1.2;stroke-linecap:butt;stroke-linejoin:miter;stroke:rgb(0%,0%,0%);stroke-opacity:1;stroke-miterlimit:10;" d="M 101.894531 150.144531 L 94.460938 128.785156 "/>
<path style="fill:none;stroke-width:1.2;stroke-linecap:butt;stroke-linejoin:miter;stroke:rgb(0%,0%,100%);stroke-opacity:1;stroke-miterlimit:10;" d="M 72.246094 124.542969 L 64.855469 133.101562 "/>
<path style="fill:none;stroke-width:1.2;stroke-linecap:butt;stroke-linejoin:miter;stroke:rgb(0%,0%,0%);stroke-opacity:1;stroke-miterlimit:10;" d="M 64.855469 133.101562 L 57.464844 141.660156 "/>
<path style=" stroke:none;fill-rule:nonzero;fill:rgb(100%,100%,100%);fill-opacity:1;" d="M 69.246094 119.042969 L 76.246094 119.042969 L 76.246094 130.042969 L 69.246094 130.042969 Z M 69.246094 119.042969 "/>
<g style="fill:rgb(0%,0%,100%);fill-opacity:1;">
  <use xlink:href="#glyph0-1" x="69.246094" y="127.706055"/>
</g>
<path style="fill:none;stroke-width:1.2;stroke-linecap:butt;stroke-linejoin:miter;stroke:rgb(0%,0%,0%);stroke-opacity:1;stroke-miterlimit:10;" d="M 57.464844 141.660156 L 64.898438 163.019531 "/>
<path style="fill:none;stroke-width:1.2;stroke-linecap:butt;stroke-linejoin:miter;stroke:rgb(0%,0%,0%);stroke-opacity:1;stroke-miterlimit:10;" d="M 63.234375 142.046875 L 69.179688 159.136719 "/>
<path style="fill:none;stroke-width:1.2;stroke-linecap:butt;stroke-linejoin:miter;stroke:rgb(0%,0%,0%);stroke-opacity:1;stroke-miterlimit:10;" d="M 57.464844 141.660156 L 35.25 137.417969 "/>
<path style="fill:none;stroke-width:1.2;stroke-linecap:butt;stroke-linejoin:miter;stroke:rgb(0%,0%,0%);stroke-opacity:1;stroke-miterlimit:10;" d="M 64.898438 163.019531 L 87.113281 167.261719 "/>
<path style="fill:none;stroke-width:1.2;stroke-linecap:butt;stroke-linejoin:miter;stroke:rgb(0%,0%,0%);stroke-opacity:1;stroke-miterlimit:10;" d="M 87.113281 167.261719 L 101.894531 150.144531 "/>
<path style="fill:none;stroke-width:1.2;stroke-linecap:butt;stroke-linejoin:miter;stroke:rgb(0%,0%,0%);stroke-opacity:1;stroke-miterlimit:10;" d="M 84.5625 162.074219 L 96.390625 148.378906 "/>
</g>
</svg>

<svg xmlns="http://www.w3.org/2000/svg" xmlns:xlink="http://www.w3.org/1999/xlink" width="300pt" height="300pt" viewBox="0 0 300 300"><defs><symbol overflow="visible"><path d="M.453 1.594v-7.938h4.5v7.938zm.5-.5h3.5v-6.938h-3.5zm0 0"/></symbol><symbol overflow="visible" id="a"><path d="M.89-6.563H2.08l2.906 5.485v-5.484h.86V0H4.656L1.75-5.484V0H.89zm0 0"/></symbol><symbol overflow="visible" id="b"><path d="M.89-6.563h.876v2.688H5v-2.688h.89V0H5v-3.125H1.766V0H.89zm0 0"/></symbol></defs><g><path fill="#fff" d="M0 0h300v300H0z"/><path d="M264.75 141.367l-22.215-4.242M242.535 137.125l-14.78 17.117M237.027 135.36l-11.824 13.695M235.102 115.766l7.433 21.36M227.754 154.242L205.54 150M205.54 150l-7.435-21.36M199.77 149.613l-5.95-17.09M190.754 167.117L205.54 150M198.105 128.64l14.782-17.117M198.105 128.64l-11.11-2.12" stroke-width="1.2" stroke="#000" stroke-miterlimit="10" fill="none"/><path d="M186.996 126.52l-11.105-2.122" stroke-width="1.2" stroke="#00f" stroke-miterlimit="10" fill="none"/><path d="M212.887 111.523l22.215 4.243M214.11 117.172l17.773 3.394" stroke-width="1.2" stroke="#000" stroke-miterlimit="10" fill="none"/><path d="M175.89 124.398l-7.39 8.56" stroke-width="1.2" stroke="#00f" stroke-miterlimit="10" fill="none"/><path d="M168.5 132.957l-7.39 8.56" stroke-width="1.2" stroke="#000" stroke-miterlimit="10" fill="none"/><path d="M178.438 129.586l-5.91 6.848" stroke-width="1.2" stroke="#00f" stroke-miterlimit="10" fill="none"/><path d="M172.527 136.434l-5.914 6.847" stroke-width="1.2" stroke="#000" stroke-miterlimit="10" fill="none"/><path d="M172.89 118.898h7v11h-7zm0 0" fill="#fff"/><use xlink:href="#a" x="172.891" y="127.562" fill="#00f"/><path d="M161.11 141.516l7.43 21.36M161.11 141.516l-11.11-2.12" stroke-width="1.2" stroke="#000" stroke-miterlimit="10" fill="none"/><path d="M150 139.395l-11.11-2.125" stroke-width="1.2" stroke="#00f" stroke-miterlimit="10" fill="none"/><path d="M168.54 162.875l22.214 4.242M171.762 158.07l17.77 3.395M190.754 167.117l7.434 21.36" stroke-width="1.2" stroke="#000" stroke-miterlimit="10" fill="none"/><path d="M138.89 137.27l-7.43-21.36" stroke-width="1.2" stroke="#00f" stroke-miterlimit="10" fill="none"/><path d="M131.89 131.77h14v11h-14zm0 0" fill="#fff"/><g fill="#00f"><use xlink:href="#a" x="131.891" y="140.433"/><use xlink:href="#b" x="138.868" y="140.433"/></g><path d="M131.46 115.91l-11.108-2.12" stroke-width="1.2" stroke="#00f" stroke-miterlimit="10" fill="none"/><path d="M120.352 113.79l-11.106-2.122" stroke-width="1.2" stroke="#000" stroke-miterlimit="10" fill="none"/><path d="M130.234 110.258l-8.882-1.695" stroke-width="1.2" stroke="#00f" stroke-miterlimit="10" fill="none"/><path d="M121.352 108.563l-8.887-1.696" stroke-width="1.2" stroke="#000" stroke-miterlimit="10" fill="none"/><path d="M128.46 110.41h7v11h-7zm0 0" fill="#fff"/><use xlink:href="#a" x="128.461" y="119.073" fill="#00f"/><path d="M109.246 111.668L94.46 128.785M94.46 128.785l-11.105-2.12" stroke-width="1.2" stroke="#000" stroke-miterlimit="10" fill="none"/><path d="M83.355 126.664l-11.11-2.12" stroke-width="1.2" stroke="#00f" stroke-miterlimit="10" fill="none"/><path d="M91.242 133.59l-8.887-1.7" stroke-width="1.2" stroke="#000" stroke-miterlimit="10" fill="none"/><path d="M82.355 131.89l-8.886-1.695" stroke-width="1.2" stroke="#00f" stroke-miterlimit="10" fill="none"/><path d="M101.895 150.145l-7.434-21.36" stroke-width="1.2" stroke="#000" stroke-miterlimit="10" fill="none"/><path d="M72.246 124.543l-7.39 8.56" stroke-width="1.2" stroke="#00f" stroke-miterlimit="10" fill="none"/><path d="M64.855 133.102l-7.39 8.558" stroke-width="1.2" stroke="#000" stroke-miterlimit="10" fill="none"/><path d="M69.246 119.043h7v11h-7zm0 0" fill="#fff"/><use xlink:href="#a" x="69.246" y="127.706" fill="#00f"/><path d="M57.465 141.66l7.433 21.36M63.234 142.047l5.946 17.09M57.465 141.66l-22.215-4.242M64.898 163.02l22.215 4.242M87.113 167.262l14.782-17.117M84.563 162.074L96.39 148.38" stroke-width="1.2" stroke="#000" stroke-miterlimit="10" fill="none"/></g></svg>
